img/why/qr-code.svg

<svg width="31" height="30" viewBox="0 0 31 30" fill="none" xmlns="http://www.w3.org/2000/svg">
<path fill-rule="evenodd" clip-rule="evenodd" d="M20.5 3.75C19.8096 3.75 19.25 4.30964 19.25 5V10C19.25 10.6904 19.8096 11.25 20.5 11.25H25.5C26.1904 11.25 26.75 10.6904 26.75 10V5C26.75 4.30964 26.1904 3.75 25.5 3.75H20.5ZM21.125 9.375V5.625H24.875V9.375H21.125Z" fill="#2A179C"/>
<path d="M25.8125 15.9375C26.3303 15.9375 26.75 15.5178 26.75 15C26.75 14.4822 26.3303 14.0625 25.8125 14.0625H20.1875C19.6697 14.0625 19.25 14.4822 19.25 15C19.25 15.5178 19.6697 15.9375 20.1875 15.9375H25.8125Z" fill="#2A179C"/>
<path d="M24.875 25C24.875 24.6548 25.1548 24.375 25.5 24.375H26.125C26.4702 24.375 26.75 24.6548 26.75 25V25.625C26.75 25.9702 26.4702 26.25 26.125 26.25H25.5C25.1548 26.25 24.875 25.9702 24.875 25.625V25Z" fill="#2A179C"/>
<path d="M23 23.125C23 22.7798 23.2798 22.5 23.625 22.5H24.25C24.5952 22.5 24.875 22.7798 24.875 23.125V23.75C24.875 24.0952 24.5952 24.375 24.25 24.375H23.625C23.2798 24.375 23 24.0952 23 23.75V23.125Z" fill="#2A179C"/>
<path d="M19.25 19.6875C19.25 19.1697 19.6697 18.75 20.1875 18.75H26.125C26.4702 18.75 26.75 19.0298 26.75 19.375V20C26.75 20.3452 26.4702 20.625 26.125 20.625H21.125V25.625C21.125 25.9702 20.8452 26.25 20.5 26.25H19.875C19.5298 26.25 19.25 25.9702 19.25 25.625V19.6875Z" fill="#2A179C"/>
<path d="M15.5 26.25C14.9822 26.25 14.5625 25.8303 14.5625 25.3125V19.6875C14.5625 19.1697 14.9822 18.75 15.5 18.75C16.0178 18.75 16.4375 19.1697 16.4375 19.6875V25.3125C16.4375 25.8303 16.0178 26.25 15.5 26.25Z" fill="#2A179C"/>
<path fill-rule="evenodd" clip-rule="evenodd" d="M5.5 18.75C4.80964 18.75 4.25 19.3096 4.25 20V25C4.25 25.6904 4.80964 26.25 5.5 26.25H10.5C11.1904 26.25 11.75 25.6904 11.75 25V20C11.75 19.3096 11.1904 18.75 10.5 18.75H5.5ZM6.125 24.375V20.625H9.875V24.375H6.125Z" fill="#2A179C"/>
<path d="M8.9375 9.0625C8.9375 8.71732 9.21732 8.4375 9.5625 8.4375H11.4375C11.7827 8.4375 12.0625 8.71732 12.0625 9.0625V10.9375C12.0625 11.2827 11.7827 11.5625 11.4375 11.5625H9.5625C9.21732 11.5625 8.9375 11.2827 8.9375 10.9375V9.0625Z" fill="#2A179C"/>
<path fill-rule="evenodd" clip-rule="evenodd" d="M5.5 3.75C4.80964 3.75 4.25 4.30964 4.25 5V15C4.25 15.6904 4.80964 16.25 5.5 16.25H15.5C16.1904 16.25 16.75 15.6904 16.75 15V5C16.75 4.30964 16.1904 3.75 15.5 3.75H5.5ZM6.125 14.375V5.625H14.875V14.375H6.125Z" fill="#2A179C"/>
</svg>

<svg width="31" height="30" fill="none" xmlns="http://www.w3.org/2000/svg"><path fill-rule="evenodd" clip-rule="evenodd" d="M20.5 3.75c-.69 0-1.25.56-1.25 1.25v5c0 .69.56 1.25 1.25 1.25h5c.69 0 1.25-.56 1.25-1.25V5c0-.69-.56-1.25-1.25-1.25h-5Zm.625 5.625v-3.75h3.75v3.75h-3.75Z" fill="#2A179C"/><path d="M25.813 15.938a.937.937 0 1 0 0-1.876h-5.625a.937.937 0 1 0 0 1.876h5.625ZM24.875 25c0-.345.28-.625.625-.625h.625c.345 0 .625.28.625.625v.625c0 .345-.28.625-.625.625H25.5a.625.625 0 0 1-.625-.625V25ZM23 23.125c0-.345.28-.625.625-.625h.625c.345 0 .625.28.625.625v.625c0 .345-.28.625-.625.625h-.625A.625.625 0 0 1 23 23.75v-.625Z" fill="#2A179C"/><path d="M19.25 19.688c0-.518.42-.938.938-.938h5.937c.345 0 .625.28.625.625V20c0 .345-.28.625-.625.625h-5v5c0 .345-.28.625-.625.625h-.625a.625.625 0 0 1-.625-.625v-5.938ZM15.5 26.25a.937.937 0 0 1-.938-.938v-5.625a.937.937 0 1 1 1.876 0v5.625c0 .518-.42.938-.938.938Z" fill="#2A179C"/><path fill-rule="evenodd" clip-rule="evenodd" d="M5.5 18.75c-.69 0-1.25.56-1.25 1.25v5c0 .69.56 1.25 1.25 1.25h5c.69 0 1.25-.56 1.25-1.25v-5c0-.69-.56-1.25-1.25-1.25h-5Zm.625 5.625v-3.75h3.75v3.75h-3.75Z" fill="#2A179C"/><path d="M8.938 9.063c0-.346.28-.626.624-.626h1.876c.345 0 .624.28.624.626v1.874c0 .346-.28.626-.624.626H9.562a.625.625 0 0 1-.624-.626V9.063Z" fill="#2A179C"/><path fill-rule="evenodd" clip-rule="evenodd" d="M5.5 3.75c-.69 0-1.25.56-1.25 1.25v10c0 .69.56 1.25 1.25 1.25h10c.69 0 1.25-.56 1.25-1.25V5c0-.69-.56-1.25-1.25-1.25h-10Zm.625 10.625v-8.75h8.75v8.75h-8.75Z" fill="#2A179C"/></svg>
